public/images/earth.svg

<svg width="39" height="39" viewBox="0 0 39 39" fill="none" xmlns="http://www.w3.org/2000/svg">
<path d="M19.5 34.9375C17.3604 34.9375 15.3495 34.5312 13.4672 33.7188C11.5849 32.9062 9.95312 31.8094 8.57188 30.4281C7.19063 29.0469 6.09375 27.4151 5.28125 25.5328C4.46875 23.6505 4.0625 21.6396 4.0625 19.5C4.0625 17.3604 4.46875 15.3495 5.28125 13.4672C6.09375 11.5849 7.19063 9.95312 8.57188 8.57188C9.95312 7.19063 11.5849 6.09375 13.4672 5.28125C15.3495 4.46875 17.3604 4.0625 19.5 4.0625C21.6396 4.0625 23.6505 4.46875 25.5328 5.28125C27.4151 6.09375 29.0469 7.19063 30.4281 8.57188C31.8094 9.95312 32.9062 11.5849 33.7188 13.4672C34.5312 15.3495 34.9375 17.3604 34.9375 19.5C34.9375 21.6396 34.5312 23.6505 33.7188 25.5328C32.9062 27.4151 31.8094 29.0469 30.4281 30.4281C29.0469 31.8094 27.4151 32.9062 25.5328 33.7188C23.6505 34.5312 21.6396 34.9375 19.5 34.9375ZM17.7937 33.0281V29.7375C16.8458 29.7375 16.0536 29.399 15.4172 28.7219C14.7807 28.0448 14.4625 27.2323 14.4625 26.2844V24.5375L6.25625 16.3719C6.14792 16.8865 6.0599 17.401 5.99219 17.9156C5.92448 18.4302 5.89062 18.9583 5.89062 19.5C5.89062 22.9667 7.02135 25.9865 9.28281 28.5594C11.5443 31.1323 14.3812 32.6219 17.7937 33.0281ZM29.5344 28.7219C30.1031 28.099 30.6109 27.4219 31.0578 26.6906C31.5047 25.9594 31.8839 25.201 32.1953 24.4156C32.5068 23.6302 32.737 22.8245 32.8859 21.9984C33.0349 21.1724 33.1094 20.3396 33.1094 19.5C33.1094 16.6833 32.3375 14.1172 30.7938 11.8016C29.25 9.48594 27.1781 7.8 24.5781 6.74375V7.51562C24.5781 8.43646 24.2599 9.24219 23.6234 9.93281C22.987 10.6234 22.1948 10.9688 21.2469 10.9688H17.7937V14.4219C17.7937 14.8823 17.6177 15.2615 17.2656 15.5594C16.9135 15.8573 16.5073 16.0063 16.0469 16.0063H12.7156V19.5H22.9937C23.4542 19.5 23.8333 19.6693 24.1313 20.0078C24.4292 20.3464 24.5781 20.7458 24.5781 21.2063V26.2844H26.2844C27.0698 26.2844 27.7536 26.5078 28.3359 26.9547C28.9182 27.4016 29.3177 27.9906 29.5344 28.7219Z" fill="#FF833E"/>
</svg>

<svg xmlns="http://www.w3.org/2000/svg" width="39" height="39" fill="none" viewBox="0 0 39 39"><path fill="#FF833E" d="M19.5 34.938c-2.14 0-4.15-.407-6.033-1.22-1.882-.812-3.514-1.909-4.895-3.29-1.381-1.381-2.478-3.013-3.29-4.895-.813-1.883-1.22-3.893-1.22-6.033 0-2.14.407-4.15 1.22-6.033.812-1.882 1.909-3.514 3.29-4.895 1.381-1.381 3.013-2.478 4.895-3.29 1.883-.813 3.893-1.22 6.033-1.22 2.14 0 4.15.407 6.033 1.22 1.882.812 3.514 1.909 4.895 3.29 1.381 1.381 2.478 3.013 3.29 4.895.813 1.883 1.22 3.893 1.22 6.033 0 2.14-.407 4.15-1.22 6.033-.812 1.882-1.909 3.514-3.29 4.895-1.381 1.381-3.013 2.478-4.895 3.29-1.883.813-3.893 1.22-6.033 1.22zm-1.706-1.91v-3.29c-.948 0-1.74-.339-2.377-1.016-.636-.677-.954-1.49-.954-2.438v-1.746l-8.207-8.166a20.75 20.75 0 0 0-.264 1.544 12.135 12.135 0 0 0-.101 1.584c0 3.467 1.13 6.486 3.392 9.06 2.261 2.572 5.098 4.062 8.51 4.468zm11.74-4.306a13.2 13.2 0 0 0 1.524-2.031c.447-.732.826-1.49 1.137-2.275.312-.786.542-1.591.69-2.418.15-.826.224-1.658.224-2.498 0-2.817-.772-5.383-2.315-7.698-1.544-2.316-3.616-4.002-6.216-5.058v.772c0 .92-.318 1.726-.955 2.417-.636.69-1.428 1.036-2.376 1.036h-3.453v3.453c0 .46-.176.84-.528 1.137a1.831 1.831 0 0 1-1.22.447h-3.33V19.5h10.278c.46 0 .84.17 1.137.508.298.338.447.738.447 1.198v5.078h1.706c.786 0 1.47.224 2.052.67a3.374 3.374 0 0 1 1.198 1.768z"/></svg>
